assets/ai/ai-isidore-square.svg

<svg xmlns="http://www.w3.org/2000/svg" width="100%" height="100%" viewBox="-75.52 -43.52 599.04 599.04"><path d="M 48 32 C 21.5 32 0 53.5 0 80 L 0 432 C 0 458.5 21.5 480 48 480 L 400 480 C 426.5 480 448 458.5 448 432 L 448 80 C 448 53.5 426.5 32 400 32 L 48 32 z M 65.007812 133.03906 C 136.34532 141.16863 164.57133 200.16859 172.3125 217.95898 C 188.46339 175.55482 229.10861 147.48047 274.48438 147.48047 L 274.57227 147.48047 C 335.00762 147.48047 383.99962 196.47285 384 256.9082 C 384.00177 317.34495 335.00907 366.34139 274.57227 366.3418 C 228.57928 366.34136 187.49552 337.58051 171.75391 294.36523 C 163.73403 312.57171 136.34532 368.7988 65.007812 378.96094 C 55.049356 295.63238 122.11914 257.01562 122.11914 257.01562 C 122.11914 257.01562 55.049357 214.33501 65.007812 133.03906 z M 274.08789 190.85156 C 237.79403 190.85156 208.51488 220.6143 208.51562 256.9082 C 208.5137 293.39186 238.08859 322.97041 274.57227 322.9707 C 311.05599 322.97047 340.63091 293.39186 340.62891 256.9082 C 340.6287 220.42603 311.05441 190.8518 274.57227 190.85156 C 274.41089 190.85095 274.24923 190.85156 274.08789 190.85156 z M 274.57227 231.69531 C 288.49771 231.69571 299.78665 242.98277 299.78711 256.9082 C 299.78887 270.83508 288.49922 282.1265 274.57227 282.12695 C 260.64538 282.1265 249.35542 270.83508 249.35742 256.9082 C 249.35785 242.98277 260.6469 231.69578 274.57227 231.69531 z"/></svg>

<svg xmlns="http://www.w3.org/2000/svg" width="100%" height="100%" viewBox="-75.52 -43.52 599.04 599.04"><path d="M48 32C21.5 32 0 53.5 0 80v352c0 26.5 21.5 48 48 48h352c26.5 0 48-21.5 48-48V80c0-26.5-21.5-48-48-48H48zm17.008 101.04c71.337 8.129 99.563 67.129 107.305 84.919 16.15-42.404 56.796-70.479 102.171-70.479h.088C335.008 147.48 384 196.473 384 256.908c.002 60.437-48.99 109.433-109.428 109.434-45.993 0-87.076-28.761-102.818-71.977-8.02 18.207-35.409 74.434-106.746 84.596-9.959-83.329 57.111-121.945 57.111-121.945s-67.07-42.681-57.111-123.977zm209.08 57.812c-36.294 0-65.573 29.762-65.572 66.056-.002 36.484 29.573 66.062 66.056 66.063 36.484 0 66.059-29.58 66.057-66.063 0-36.482-29.575-66.056-66.057-66.056h-.484zm.484 40.843c13.926 0 25.215 11.288 25.215 25.213.002 13.927-11.288 25.219-25.215 25.219s-25.217-11.292-25.215-25.219c0-13.925 11.29-25.212 25.215-25.213z"/></svg>
